X: 15561
T: Glor Na NAingeal
R: waltz
M: 3/4
K: Gmajor
GA|:B2 AG AB|d2 g2 fg|e2 dB AG|E2 D2 (3DEG|
B2 d2 de|dB de g2|a2 ag bg|a4 ba|
g2 f2 ef|ed B2 AB|c2 dB AG|E2 D2 (3DEG|
B2 g2 ed|de B2 AG|AB G2 G2|1 G4 GA:|2 G4 FG||
|:A2 B2 cd|d2 G2 (3GAB|d2 eg ed|d4 (3deg|
b2 g2 (3ABd|e2 dB AG|A2 B2 G2|d4 (3deg|
e2 d2 (3deg|A2 B2 AB|c2 dB AG|E2 D2 (3DEG|
B2 g2 ed|de B2 AG|AB G2 G2|1 G4 FG:|2 G4||

